app/assets/images/icons/active/collapse.svg

<svg width="32" height="232" viewBox="0 0 32 232" xmlns="http://www.w3.org/2000/svg" xmlns:sketch="http://www.bohemiancoding.com/sketch/ns"><title>collapse</title><g sketch:type="MSPage" fill="none"><path d="M21.986 140.684l6.514 6.463-1.853 1.853-6.463-6.413v3.206h-2.506v-7.615h7.717v2.506h-3.409zm-10.169-13.478h2.505v7.615h-7.714v-2.504h3.355l-6.463-6.463 1.854-1.854 6.463 6.362v-3.156zm0 0" fill="#206FAC" sketch:type="MSShapeGroup"/><path d="M21.986 100.684l6.514 6.463-1.853 1.853-6.463-6.413v3.206h-2.506v-7.615h7.717v2.506h-3.409zm-10.169-13.478h2.505v7.615h-7.714v-2.504h3.355l-6.463-6.463 1.854-1.854 6.463 6.362v-3.156zm0 0" fill="#fff" sketch:type="MSShapeGroup"/><path d="M21.986 60.684l6.514 6.463-1.853 1.853-6.463-6.413v3.206h-2.506v-7.615h7.717v2.506h-3.409zm-10.169-13.478h2.505v7.615h-7.714v-2.504h3.355l-6.463-6.463 1.854-1.854 6.463 6.362v-3.156zm0 0" fill="#67737B" sketch:type="MSShapeGroup"/><path d="M21.986 20.684l6.514 6.463-1.853 1.853-6.463-6.413v3.206h-2.506v-7.615h7.717v2.506h-3.409zm-10.169-13.478h2.505v7.615h-7.714v-2.504h3.355l-6.463-6.463 1.854-1.854 6.463 6.362v-3.156zm0 0" fill="#3A434E" sketch:type="MSShapeGroup"/></g></svg>

<?xml version="1.0" encoding="UTF-8" standalone="no"?>
<svg width="32px" height="232px" viewBox="0 0 32 232" version="1.1" xmlns="http://www.w3.org/2000/svg" xmlns:xlink="http://www.w3.org/1999/xlink" xmlns:sketch="http://www.bohemiancoding.com/sketch/ns">
    <title>collapse</title>
    <description>Created with Sketch (http://www.bohemiancoding.com/sketch)</description>
    <defs></defs>
    <g id="Functions" stroke="none" stroke-width="1" fill="none" fill-rule="evenodd" sketch:type="MSPage">
        <path d="M21.986,140.684 L28.5,147.147 L26.647,149 L20.184,142.587 L20.184,145.793 L17.678,145.793 L17.678,138.178 L25.395,138.178 L25.395,140.684 L21.986,140.684 L21.986,140.684 L21.986,140.684 L21.986,140.684 Z M11.817,127.206 L14.322,127.206 L14.322,134.821 L6.608,134.821 L6.608,132.317 L9.963,132.317 L3.5,125.854 L5.354,124 L11.817,130.362 L11.817,127.206 L11.817,127.206 Z M11.817,127.206" id="collapse--lp-blue" fill="#206FAC" sketch:type="MSShapeGroup"></path>
        <path d="M21.986,100.684 L28.5,107.147 L26.647,109 L20.184,102.587 L20.184,105.793 L17.678,105.793 L17.678,98.178 L25.395,98.178 L25.395,100.684 L21.986,100.684 L21.986,100.684 L21.986,100.684 L21.986,100.684 Z M11.817,87.206 L14.322,87.206 L14.322,94.821 L6.608,94.821 L6.608,92.317 L9.963,92.317 L3.5,85.854 L5.354,84 L11.817,90.362 L11.817,87.206 L11.817,87.206 Z M11.817,87.206" id="collapse--white" fill="#FFFFFF" sketch:type="MSShapeGroup"></path>
        <path d="M21.986,60.684 L28.5,67.147 L26.647,69 L20.184,62.587 L20.184,65.793 L17.678,65.793 L17.678,58.178 L25.395,58.178 L25.395,60.684 L21.986,60.684 L21.986,60.684 L21.986,60.684 L21.986,60.684 Z M11.817,47.206 L14.322,47.206 L14.322,54.821 L6.608,54.821 L6.608,52.317 L9.963,52.317 L3.5,45.854 L5.354,44 L11.817,50.362 L11.817,47.206 L11.817,47.206 Z M11.817,47.206" id="collapse--body-grey" fill="#67737B" sketch:type="MSShapeGroup"></path>
        <path d="M21.986,20.684 L28.5,27.147 L26.647,29 L20.184,22.587 L20.184,25.793 L17.678,25.793 L17.678,18.178 L25.395,18.178 L25.395,20.684 L21.986,20.684 L21.986,20.684 L21.986,20.684 L21.986,20.684 Z M11.817,7.206 L14.322,7.206 L14.322,14.821 L6.608,14.821 L6.608,12.317 L9.963,12.317 L3.5,5.854 L5.354,4 L11.817,10.362 L11.817,7.206 L11.817,7.206 Z M11.817,7.206" id="collapse--title-grey" fill="#3A434E" sketch:type="MSShapeGroup"></path>
    </g>
</svg>
